X:1
T:The Two Ways (Lyall)
T:The Two Ways (Lyall)
T:Frank J. Robertson, 1893
T:Jennie R. Lyall, 1877
T:Public Domain Courtesy of the Cyber Hymnal™
T:Public Domain Courtesy of the Cyber Hymnal™
C:Frank J. Robertson, 1893
Z:Public Domain
Z:Courtesy of the Cyber Hymnal™
%%score ( 1 2 ) ( 3 4 )
L:1/8
Q:1/4=100
M:4/4
K:G
V:1 treble 
V:2 treble 
V:3 bass 
V:4 bass 
V:1
 D2 | [DG]2 [DG][DA] [GB]2 (Bc) | [Ge]2 (dc) [GB]2 (AB) | [Fc]2 [FA][FB] [Fc]2 ([GB][Ac]) | %4
w: 1.~There|are but two ways in *|life, my * friend, The *|wrong and the right, the *|
w: 2.~There|are but two roads in *|life, my * friend, The *|straight and nar- row, the *|
w: 3.~The|one is be- set with *|foes, my * friend, ’Tis *|full of al- lure- ments,~but *|
 [^Ae]2 [Bd][A^c] [Bd]2 (G=A) | [GB]2 [GB][Gc] [Gd]2 ([Gc][GB]) | (BA) (AE) [EA]2 [EG]E | %7
w: false and the true; They’re *|coun- ter to each from *|end * to * end, Save e-|
w: broad and the plain; Think *|well which one you will *|take, * my * friend, You will|
w: dan- ger is there; The *|o- ther leads stead- ily *|on, * my * friend, To a|
 [B,D]2 [DG][DA] [DB]2 [FA][FA] | G6 || (Bc) |"^Refrain" d6 [Ge]>[Gd] | c6 (AB) | c6 [Fd]>[Fc] | %13
w: ter- ni- ty lim- its the|two.|There *|are but two|ways in *|life, but two|
w: ne’er tra- vel this way a-|gain.|||||
w: Heav’n that is bright a- nd|fair.|||||
 B6 (Bc) | [Gd]2 [Gd]>[Gd] [Gc][GB][DA][DG] |!<(! [Gc]>[GB] [Gc]>[Gd]!<)! !fermata![Ge]2 [Ge]2 | %16
w: ways, * *|||
w: |||
w: |||
 [Gd]2 [Gc]>[GB] [FA]2 [FB]>[FA] | G6 |] %18
w: ||
w: ||
w: ||
V:2
 D2 | x6 G2 | x2 G2 x F2 x | x8 | x6 G2 | x8 | E2 E2 x2 E x | x8 | G6 || G2 | (G2 G2 G2) x2 | %11
 (F2 F>F F2) F2 | (F2 F2 F2) x2 | (G2 GG G2) G2 | x8 | x8 | x8 | G6 |] %18
V:3
 [G,B,]2 | [G,B,]2 [G,B,][G,C] [G,D]2 (DE) | [G,C]2 (B,A,) G,2 D2 | [A,D]2 DD [D,D]2 ([D,D][D,D]) | %4
w: ~|~ ~ ~ ~ ~ *|~ ~ * ~ ~|~ ~ ~ ~ ~ *|
 [G,^C]2 [G,D][G,E] [G,D]2 (B,=C) | [G,D]2 [G,D][G,C] [G,B,]2 ([G,E][G,D]) | %6
w: ~ ~ ~ ~ ~ *|~ ~ ~ ~ ~ *|
 C2 [C,=C]2 [C,C]2 [^C,^A,][C,A,] | [D,B,]2 [D,B,][D,C] [D,D]2 [D,C][D,C] | [G,B,]6 || (DC) | %10
w: ~ ~ ~ ~ ~|~ ~ ~ ~ ~ ~|~|There *|
 [G,B,]2 [D,B,]2 [G,B,]2 [D,B,]>[D,B,] | [A,D]2 [D,D]>[D,D] [A,D]2 (CB,) | %12
w: are but two ways, but|two ways in life, There *|
 A,2 [D,A,]2 A,2 [D,A,]>[D,A,] | G,2 [D,G,][B,,G,] [G,,G,]2 (G,A,) | %14
w: are but two ways, but|two ways in life; The *|
 [G,B,]2 [G,B,]>[G,B,] [G,E][G,D][G,C][=F,B,] | [E,C]>[=F,D] [E,C]>[D,B,] !fermata![C,C]2 [C,C]2 | %16
w: one leads to glo- ry, and the|o- ther leads to death: Oh,|
 [D,B,]2 [D,E]>[D,D] [D,C]2 [D,D]>[D,C] | [G,B,]6 |] %18
w: which of the two will you|take?|
V:4
 x2 | x6 G,2 | x2 G,2 G,2 (CB,) | x2 DD x4 | x6 G,2 | x8 | ^C2 x6 | x8 | x6 || G,2 | x8 | x6 D,2 | %12
 A,2 A,2 x4 | G,2 x2 G,2 x2 | x8 | x8 | x8 | x6 |] %18

